X:1
T:Black-eyed Susie
M:4/4
L:1/4
K:G
 d d d B| c c c A| B/2B/2 B/2B/2 B G/2G/2| A F E D| G4| G D B, D| G2 G/2G/2 G/2G/2|\
 G D B, D| G4| A F E D| G4-| G3 z|
